X:30
T: MAEDCHEN HAST DU LUST ZU TRUTZEN
N: E0644A
O: Europa, Mitteleuropa, Deutschland; Frankreich, Elsass
R: Liebes - Lied
M: 3/4
L: 1/16
K: Bb
F3F | B6D2G3F | F4E4z4 | A3cB4
F3F | B6D2G3F | F4E4z4 | A3cB4
F2F2 | A4A4G2F2 | B4B4
B2d2 | c4c4c2e2 | d4d2
c2B2A2 | G6A2B3G | F8
B2d2 | f8e8 | d8z4

